!!!OTL: Kaeuzlein.
!!!ARE: Europa, Mitteleuropa, Deutschland
!!!SCT: A0172
!!!TXL: @@GMH
!!!YEM: Copyright 1995, estate of Helmut Schaffrath.
**kern	**text
!! Mixed meters:  4/2; 6/2
*M4/2	*
*met(c|)	*
*clefC4	*
*k[b-]	*
*F:ion	*
=1	=1
!LO:TX:a:t=jon.	!
1ryy	.
2ryy	.
{2F	Ich
=2	=2
2F	ar-
2F	-mes
2A	keutʒ-
2A	-lein
=3	=3
*M6/2	*
*lig	*
1F	klei-
2G	.
*Xlig	*
1A}	-ne,
{2B-	wo
=4	=4
*M4/2	*
1c	ſol
2B-	ich
*lig	*
1A	flie-
=5-	=5-
.	.
4G	.
4F	.
2G	.
*Xlig	*
2G	-gen
=6	=6
1F	auß?
2r}	.
{2F	bey
=7	=7
*M6/2	*
1F	nacht
2A	ſo
1G	gar
2F	al-
=8	=8
*lig	*
2.C	-lei-
4D	.
2E	.
*Xlig	*
1F}	-ne,
{2F	bringt
=9	=9
*M4/2	*
*lig	*
2A	mir
2c	.
*Xlig	*
2B-	gar
4A/	man-
4G/	.
=10-	=10-
2F	.
2A/	.
2G	.
2G	-chen
=11	=11
0F/ll}	grauß.
==	==
!!!GTL: Liebeslieder
!!!AGN: Romanze, Ballade, Lied
!! Forster III 1549 No. 4
!!!ONB: ESAC (Essen Associative Code) Database: ALTDEU
!!!AMT: irregular
!!!AIN: vox
!!!EED: Helmut Schaffrath
!!!EEV: 1.0
!!!RDF**kern: l = terminal long
!!!AMD: Ionian
!!!URL-scan: https://rosdok.uni-rostock.de/mcrviewer/recordIdentifier/rosdok_ppn738218359/iview2/phys_0335.iview2?x=-495.6391625615763&y=709.808374384651&scale=0.4629418472063854&rotation=0&layout=singlePageLayout&logicalDiv=log_0009
!!!ENC: Anna Maria Matuszewska
!!!EEV: 2024/07/03
*-	*-
